!!!ONB: MCCC : ILB0184_03 : Extracted Monophonic Melody
!!!COM: Beethoven, Ludwig van
!!!OPR: Piano Sonata No.23
!!!OMV: 3
!!!SCT: Op.57
!!!ODT: 1804///
**kern
*thru
*staff1
*Ipiano
*>A
*clefG2
*k[b-e-a-d-]
*f:
*M2/4
*MM144
=1
4.dd-
8dd-
=2
4.dd-
8dd-
=3
8.dd-
16dd-
8.dd-
16dd-
=4
8.dd-
16dd-
8.dd-
16dd-
=5
4dd-
8r
16ddd-
16ccc
=6
16bb-
16ccc
16bb-
16aa-
16gg
16aa-
16gg
16ff
=7
4ee
8r
16dd-
16cc
=8
16b-
16cc
16b-
16a-
16g
16a-
16g
16f
=9
4e
8r
16dd-
16cc
=10
16b-
16cc
16b-
16a-
16g
16a-
16g
16f
=11
16e
16f
16e
16d-
16c
16d-
16c
16B
=12
16B-
16c
16B-
16A-
16G
16A-
16G
16F
=13
16E
16F
16E
16D-
16C
16D-
16C
16BB
=14
16C
16D-
16C
16BB
16C
16D-
16C
16BB
=15
16C
16D-
16C
16BB
16C
16D-
16C
16BB
=16
16BB-
16C
16BB-
16AA
16BB-
16C
16BB-
16AA
=17
16BB-
16C
16BB-
16AA
16BB-
16C
16BB-
16AA
=18
16BB-
16C
16BB-
16AA
16BB-
16C
16BB-
16AA
=19
16BB-
16GG
16AA-
16BB-
16C
16BB-
16AA-
16GG
=20
16r
16C
16F
16A-
16c
16d-
16c
16B-
=21
16A-
16B-
16A-
16G
16F
16G
16A-
16F
=22
16r
16C
16F
16A-
16c
16d-
16c
16B-
=23
16A-
16B-
16A-
16G
16F
16G
16A-
16F
=24
16r
16D-
16G-
16B-
16d-
16e-
16d-
16c
=25
16B-
16c
16B-
16A-
16G-
16A-
16G-
16F
=26
16E
16F
16G
16E
16F
16G
16A-
16F
=27
16G
16A-
16B-
16G
16E
16F
16G
16E
=28
16F
16C
16F
16A-
16c
16d-
16c
16B-
=29
16A-
16B-
16A-
16G
16F
16G
16A-
16F
=30
16r
16C
16F
16A-
16c
16d-
16c
16B-
=31
16A-
16B-
16A-
16G
16F
16G
16A-
16F
=32
16r
16D-
16G-
16B-
16d-
16e-
16d-
16c
=33
16B-
16c
16B-
16A-
16G-
16A-
16G-
16F
=34
16E
16F
16G
16E
16F
16G
16A-
16F
=35
16G
16A-
16B-
16G
16E
16F
16G
16E
=36
16F
16c
16f
16a-
16cc
16c
16f
16a-
=37
16r
16c
16f
16a-
16cc
16c
16f
16a-
=38
16r
16B
16d
16a-
4b
=39
16b
16B
16e
16g
16cc
16c
16e
16g
=40
16r
16c
16e
16g
16cc
16c
16e
16g
=41
16r
16c
16e
16g
16cc
16c
16e
16g
=42
16r
16c
16e
16g
4cc
=43
16cc
16c
16e
16g
16cc
16c
16f
16a-
=44
16r
16f
16a
16cc
16ff
16f
16a
16cc
=45
16r
16f
16a
16cc
16ff
16f
16a
16cc
=46
4r
4ff
=47
16a
16ff
16b-
16ff
16cc
16ff
16dd-
16ff
=48
4r
4cc
=49
16cc
16c
16g
16b-
16cc
16c
16e
16g
=50
4cc
8.r
16aa-
=51
4aa-
8.r
16aa-
=52
2aa-
=53
8gg
8r
4r
=54
4r
8.r
16bb-
=55
4bb-
8.r
16bb-
=56
2bb-
=57
8aa-
8r
4r
=58
4r
8.r
16eee-
=59
4eee-
8.r
16eee-
=60
[2eee-
=61
8eee-]
8ddd-
8ccc
8bb-
=62
4aa-
8.r
16fff
=63
4ggg
8.r
16eee
=64
16fff
16cc
16ff
16aa-
16ccc
16ddd-
16ccc
16bb-
=65
16aa-
16bb-
16aa-
16gg
16ff
16gg
16aa-
16ff
=66
16r
16cc
16ff
16aa-
16ccc
16ddd-
16ccc
16bb-
=67
16aa-
16bb-
16aa-
16gg
16ff
16gg
16aa-
16ff
=68
16r
*8va
16ff
16bb
16ddd
16fff
16ggg
16fff
16eee-
=69
16ddd
16eee-
16ddd
16ccc
16bb
16ccc
16ddd
16bb
=70
16r
16ff
16bb
16ddd
16fff
16ggg
16fff
16eee-
=71
16ddd
16eee-
16ddd
16ccc
16bb
16ccc
16ddd
16bb
=72
16r
16gg
16ccc
16eee-
16ggg
16aaa-
16ggg
16fff
=73
16eee-
16fff
16eee-
16ddd
16ccc
16ddd
16eee-
16ccc
=74
16r
16gg
16ccc
16eee-
16ggg
16aaa-
16ggg
16fff
=75
16eee-
16fff
16eee-
16ddd
16ccc
16ddd
16eee-
16ccc
=76
16r
16ddd-
16eee-
16ddd-
16eee-
16ddd-
16ccc
16ddd-
=77
16r
16bb
16ccc
16bb
16r
16ccc
16ddd
16ccc
=78
16r
16ddd-
16eee-
16ddd-
16eee-
16ddd-
16ccc
16ddd-
=79
16r
16bb
16ccc
16bb
16r
16ccc
16ddd-
16ccc
=80
16r
16ddd-
16eee-
16ddd-
16eee-
16ddd-
16ccc
16ddd
*X8va
=81
16r
16bb
16ccc
16bb
16r
16aa-
16bb-
16aa-
=82
16r
16gg
16aa-
16gg
16r
16ff#
16gg
16ff#
=83
16r
16ff
16gg
16ff
16r
16ee-
16ff
16ee-
=84
16r
16ee-
16ff
16ee-
16r
16dd
16ee-
16dd
=85
16r
16cc
16dd
16cc
16r
16b
16cc
16b
=86
16r
16a-
16aa-
16a-
16aa-
16a-
16aa-
16a-
=87
16r
16a-
16aa-
16gg
16ff
16ee-
16dd
16cc
=88
16r
*8va
16aa-
16aaa-
16aa-
16aaa-
16aa-
16aaa-
16aa-
=89
16r
16aa-
16aaa-
16ggg
16fff
16eee-
16ddd
16ccc
*X8va
=90
16r
16a-
16aa-
16a-
16aa-
16a-
16aa-
16a-
=91
16r
16aa-
16a-
16aa-
16r
*8va
16aaa-
16aa-
16aaa-
=92
16r
16ggg
16gg
16ggg
16r
16fff#
16ff#
16fff#
=93
16r
16fff
16ff
16fff
16r
16eee-
16gg
16eee-
=94
16r
16eee-
16aa
16eee-
16r
16ddd
16aa
16ddd
*X8va
=95
16r
16ccc
16ee-
16ccc
16r
16bb
16dd
16bb
=96
16ccc
16g
16cc
16ee-
16gg
16aa-
16gg
16ff
=97
16ee-
16ff
16ee-
16dd
16cc
16b-
16a-
16g
=98
16f
16e-
16d
16c
8B
8g
=99
8g
8g
8g
8g
=100
16g
*8va
16gg
16ccc
16eee-
16ggg
16aaa-
16ggg
16fff
=101
16eee-
16fff
16eee-
16ddd
16ccc
16bb-
16aa-
16gg
*X8va
=102
16ff
16ee-
16dd
16cc
8b
8gg
=103
8gg
8gg
8gg
8gg
=104
4gg
8r
8ggg
=105
8ggg
8ggg
8ggg
8ggg
=106
4ggg
8r
8gg
=107
8gg
8gg
8gg
8gg
=108
4gg
8r
8ccc
=109
8ccc
8ccc
8ccc
8ccc
=110
4ccc
8r
8cc
=111
8cc
8cc
8cc
8cc
=112
16cc
16A
16c
16e-
16g-
16a
16cc
16ee-
=113
16gg-
16aa
16ccc
16eee-
16ggg-
16eee-
16ccc
16aa
=114
16gg-
16ee-
16cc
16a
16g-
16e-
16c
16A
=115
16G-
16E-
16C
16AA
16GG-
16r
8r
=116
2r
=117
2r
=118
*>B
16r
16A
16c
16e-
16g-
16a-
16g-
16f
=119
16e-
16f
16e-
16d-
16c
16d-
16e-
16c
=120
16r
16A
16c
16e-
16g-
16a-
16g-
16f
=121
16e-
16f
16e-
16d-
16c
16d-
16e-
16c
=122
16r
16A
16c
16e-
16g-
16a-
16g-
16f
=123
8e-
16e-
16f
16g-
16a-
16g-
16f
=124
8e-
16e-
16f
16g-
16a-
16g-
16f
=125
8e-
8gg-
8ff
8aa
=126
16bb-
16f
16b-
16dd-
16ff
16gg-
16ff
16ee-
=127
16dd-
16ee-
16dd-
16cc
16b-
16cc
16dd-
16b-
=128
16r
16f
16b-
16dd-
16ff
16gg-
16ff
16ee-
=129
16dd-
16ee-
16dd-
16cc
16b-
16cc
16dd-
16b-
=130
16r
16g-
16cc-
16ee-
16gg-
16aa-
16gg-
16ff
=131
16ee-
16ff
16ee-
16dd-
16cc-
16dd-
16ee-
16cc-
=132
16b-
16cc
16b-
16a
16b-
16cc
16dd-
16b-
=133
16a
16b-
16a
16g
16a
16b-
16cc
16a
=134
8b-
16b-
16dd-
16ff
16gg-
16ff
16ee-
=135
16dd-
16ee-
16dd-
16cc
4bb-
=136
4aa
4bb-
=137
16dd-
16ee-
16dd-
16cc
4bb-
=138
16ccc-
*8va
16gg-
16ccc-
16eee-
16ggg-
16aaa-
16ggg-
16fff
=139
16eee-
16fff
16eee-
16ddd-
16ccc-
16ddd-
16ccc-
16bb-
=140
16aa
16ccc
16eee-
16ddd-
16ccc
16ddd-
16ccc
16bb-
*X8va
=141
16aa
16bb-
16aa
16gg-
16ff
16ee-
16dd-
16cc
=142
8b-
4ff
8ff
=143
8ff
4gg-
8gg-
=144
8gg-
4ff
8ff
=145
8ff
8cc
8dd-
8ee-
=146
8dd-
4fff
8fff
=147
8fff
4ggg-
8ggg-
=148
8ggg-
4fff
8fff
=149
8fff
8ccc
8ddd-
8eee-
=150
8ddd-
4cc
8cc
=151
8cc
4b
8b
=152
8b
4cc
8cc
=153
8cc
8g
8a-
8b-
=154
8a-
4ccc
8ccc
=155
8ccc
4bb
8bb
=156
8bb
4ccc
8ccc
=157
8ccc
8gg
8aa-
8bb-
=158
16aa-
16c
16f
16a-
16cc
16dd-
16cc
16b-
=159
16a-
16b-
16a-
16g
16f
16g
16a-
16f
=160
16g-
16d-
16g-
16b-
16dd-
16ee-
16dd-
16cc
=161
16b-
16cc
16b-
16a-
16g-
16a-
16b-
16g-
=162
16a
16e-
16a
16cc
16ee-
16ff
16ee-
16dd-
=163
16cc
16dd-
16cc
16b-
16a
16b-
16cc
16a
=164
16b-
16f
16b-
16dd-
16ff
16gg-
16ff
16ee-
=165
16dd-
16cc
16b-
16a-
16g-
16f
16e-
16d-
=166
16c
16B-
16A-
16G-
16F
16E-
16D-
16C
=167
16BB-
16C
16D-
16C
8BB-
8A-
=168
16G
16c
16r
16c
16r
16c
16r
16c
=169
16r
16c
16r
16c
16r
16c
16r
16c
=170
16r
16cc
16r
16cc
16r
16cc
16r
16cc
=171
16r
16cc
16r
16cc
16r
16cc
16r
16cc
=172
16r
16ccc
16r
16ccc
16r
16ccc
16r
16ccc
=173
16r
16ccc
16r
16ccc
16r
16ccc
16r
16ccc
=174
*8va
16r
16cccc
16r
16cccc
16r
16cccc
16r
16cccc
=175
16r
16cccc
16r
16cccc
16r
16cccc
16r
16cccc
*X8va
=176
16r
16D-
16G-
16B-
8d-
8r
=177
16r
16d-
16g-
16b-
8dd-
8r
=178
16r
16dd-
16gg-
16bb-
8ddd-
8r
=179
2r
=180
16r
16E
16G
16B-
8e
8r
=181
16r
16e
16g
16b-
8ee
8r
=182
16r
16ee
16gg
16bb-
8eee
8r
=183
2r
=184
4r
16G
16B-
16d-
16e
=185
8g
8r
4r
=186
4r
16B-
16d-
16e
16g
=187
8b-
8r
4r
=188
4r
16d-
16e
16g
16b-
=189
8dd-
8r
4r
=190
4r
16e
16g
16b-
16dd-
=191
8ee
8r
4r
=192
2r
=193
8r
8e
8g
8b-
=194
8dd-
8ee
8gg
8bb-
=195
8ddd-
8eee
8ggg
8bbb-
=196
8ggg
8eee
8ddd-
8bb-
=197
8gg
8ee
8dd-
8b-
=198
8g
8e
8d-
8B-
=199
8G
8E
8D-
8BB-
=200
2GG
=201
2r
=202
2r
=203
2r
=204
2r
=205
2r
=206
4.E
8r
=207
2r
=208
4.e
8r
=209
4.ee
8r
=210
4.eee
8r
=211
4.E
8r
=212
16r
16C
16F
16A-
16c
16d-
16c
16B-
=213
16A-
16B-
16A-
16G
16F
16G
16A-
16F
=214
16r
16C
16F
16A-
16c
16d-
16c
16B-
=215
16A-
16B-
16A-
16G
16F
16G
16A-
16F
=216
16r
16D-
16G-
16B-
16d-
16e-
16d-
16c
=217
16B-
16c
16B-
16A-
16G-
16A-
16G-
16F
=218
16E
16F
16G
16E
16F
16G
16A-
16F
=219
16G
16A-
16B-
16G
16E
16F
16G
16E
=220
4F
8r
8e
=221
8f
8g
8a-
8f
=222
4r
8r
8ee
=223
8ff
8gg
8aa-
8ff
=224
4r
8r
8ff
=225
8gg-
8bb-
8ddd-
8ddd-
=226
4ddd-
[4ccc
=227
4ccc]
4ee
=228
16ff
16c
16f
16a-
16cc
16c
16f
16a-
=229
16r
16c
16f
16a-
16cc
16c
16f
16a-
=230
16r
16B
16d
16a-
4b
=231
16b
16B
16e
16g
16cc
16c
16e
16g
=232
16r
16c
16e
16g
16cc
16c
16e
16g
=233
16r
16c
16e
16g
16cc
16c
16e
16g
=234
16r
16c
16e
16g
4cc
=235
16cc
16c
16e
16g
16cc
16c
16f
16a-
=236
16r
16f
16a
16cc
16ff
16f
16a
16cc
=237
16r
16f
16a
16cc
16ff
16f
16a
16cc
=238
16r
16f
16a
16cc
4ff
=239
16a
16ff
16b-
16ff
16cc
16ff
16dd-
16ff
=240
4r
4cc
=241
16cc
16c
16g
16b-
16cc
16c
16e
16g
=242
4cc
8.r
16aa-
=243
4aa-
8.r
16aa-
=244
2aa-
=245
8gg
8r
4r
=246
4r
8.r
16bb-
=247
4bb-
8.r
16bb-
=248
2bb-
=249
8aa-
8r
4r
=250
4r
8.r
16eee-
=251
4eee-
8.r
16eee-
=252
[2eee-
=253
8eee-]
8ddd-
8ccc
8bb-
=254
4aa-
8.r
16fff
=255
4ggg
8.r
16eee
=256
16fff
16cc
16ff
16aa-
16ccc
16ddd-
16ccc
16bb-
=257
16aa-
16bb-
16aa-
16gg
16ff
16gg
16aa-
16ff
=258
16r
16cc
16ff
16aa-
16ccc
16ddd-
16ccc
16bb-
=259
16aa-
16bb-
16aa-
16gg
16ff
16gg
16aa-
16ff
=260
16r
*8va
16gg-
16ccc
16eee-
16ggg-
16aaa-
16ggg-
16fff
=261
16eee-
16fff
16eee-
16ddd-
16ccc
16ddd-
16eee-
16ccc
=262
16r
16gg-
16ccc
16eee-
16ggg-
16aaa-
16ggg-
16fff
=263
16eee-
16fff
16eee-
16ddd-
16ccc
16bb-
16aa-
16gg-
=264
16ff
16aa-
16ddd-
16fff
16aaa-
16bbb-
16aaa-
16ggg-
=265
16fff
16ggg-
16fff
16eee-
16ddd-
16eee-
16fff
16ddd-
=266
16r
16aa-
16ddd-
16fff
16aaa-
16bbb-
16aaa-
16ggg-
=267
16fff
16ggg
16aaa-
16ggg
16fff
16ggg
16aaa-
16fff
=268
16r
16ggg-
16aaa-
16ggg-
16aaa-
16ggg-
16fff
16ggg-
=269
16r
16eee
16fff
16eee
16r
16fff
16ggg
16fff
=270
16r
16ggg-
16aaa-
16ggg-
16aaa-
16ggg-
16fff
16ggg-
=271
16r
16eee
16fff
16eee
16r
16fff
16ggg
16fff
=272
16r
16ggg-
16aaa-
16ggg-
16aaa-
16ggg-
16fff
16ggg-
=273
16r
16eee
16fff
16eee
16r
16ddd-
16eee-
16ddd-
*X8va
=274
16r
16ccc
16ddd-
16ccc
16r
16bb-
16ccc
16bb-
=275
16r
16bb-
16ccc
16bb-
16r
16aa-
16bb-
16aa-
=276
16r
16aa-
16bb-
16aa-
16r
16gg
16aa-
16gg
=277
16r
16ff
16gg
16ff
16r
16ee
16ff
16ee
=278
16r
16d-
16dd-
16d-
16dd-
16d-
16dd-
16d-
=279
16r
16d-
16dd-
16cc
16b-
16a-
16g
16f
=280
16r
16dd-
16ddd-
16dd-
16ddd-
16dd-
16ddd-
16dd-
=281
16r
16dd-
16ddd-
16ccc
16bb-
16aa-
16gg
16ff
=282
16r
16d-
16dd-
16d-
16dd-
16d-
16dd-
16d-
=283
16r
16dd-
16d-
16dd-
16r
16ddd-
16dd-
16ddd-
=284
16r
16ccc
16cc
16ccc
16r
16bb
16b
16bb
=285
16r
16bb-
16b-
16bb-
16r
16aa-
16cc
16aa-
=286
16r
16aa-
16dd
16aa-
16r
16gg
16dd
16gg
=287
16r
16ff
16a-
16ff
16r
16ee
16g
16ee
=288
16ff
16c
16f
16a-
16cc
16dd-
16cc
16b-
=289
16a-
16b-
16a-
16g
16f
16e-
16d-
16c
=290
16B-
16A-
16G
16F
8E
8c
=291
8c
8c
8c
8c
=292
16c
16cc
16ff
16aa-
16ccc
16ddd-
16ccc
16bb-
=293
16aa-
16bb-
16aa-
16gg
16ff
16ee-
16dd-
16cc
=294
16b-
16a-
16g
16f
8e
8cc
=295
8cc
8cc
8cc
8cc
=296
4cc
8r
8ccc
=297
8ccc
8ccc
8ccc
8ccc
=298
4ccc
8r
8cc
=299
8cc
8cc
8cc
8cc
=300
*>B1
8cc
8ccc
8ccc
8ccc
=301
8ccc
8ccc
8ccc
8ccc
=302
16ccc
16A
16c
16e-
16g-
16a
16cc
16ee-
=303
16gg-
16aa
16ccc
16eee-
16ggg-
16eee-
16ccc
16aa
=304
16gg-
16ee-
16cc
16a
16g-
16e-
16c
16A
=305
16G-
16E-
16C
16AA
16GG-
16r
8r
=306
2r
=307
2r
=308
*>B
16r
16A
16c
16e-
16g-
16a-
16g-
16f
=309
16e-
16f
16e-
16d-
16c
16d-
16e-
16c
=310
16r
16A
16c
16e-
16g-
16a-
16g-
16f
=311
16e-
16f
16e-
16d-
16c
16d-
16e-
16c
=312
16r
16A
16c
16e-
16g-
16a-
16g-
16f
=313
8e-
16e-
16f
16g-
16a-
16g-
16f
=314
8e-
16e-
16f
16g-
16a-
16g-
16f
=315
8e-
8gg-
8ff
8aa
=316
16bb-
16f
16b-
16dd-
16ff
16gg-
16ff
16ee-
=317
16dd-
16ee-
16dd-
16cc
16b-
16cc
16dd-
16b-
=318
16r
16f
16b-
16dd-
16ff
16gg-
16ff
16ee-
=319
16dd-
16ee-
16dd-
16cc
16b-
16cc
16dd-
16b-
=320
16r
16g-
16cc-
16ee-
16gg-
16aa-
16gg-
16ff
=321
16ee-
16ff
16ee-
16dd-
16cc-
16dd-
16ee-
16cc-
=322
16b-
16cc
16b-
16a
16b-
16cc
16dd-
16b-
=323
16a
16b-
16a
16g
16a
16b-
16cc
16a
=324
8b-
16b-
16dd-
16ff
16gg-
16ff
16ee-
=325
16dd-
16ee-
16dd-
16cc
4bb-
=326
4aa
4bb-
=327
16dd-
16ee-
16dd-
16cc
4bb-
=328
16ccc-
*8va
16gg-
16ccc-
16eee-
16ggg-
16aaa-
16ggg-
16fff
=329
16eee-
16fff
16eee-
16ddd-
16ccc-
16ddd-
16ccc-
16bb-
=330
16aa
16ccc
16eee-
16ddd-
16ccc
16ddd-
16ccc
16bb-
*X8va
=331
16aa
16bb-
16aa
16gg-
16ff
16ee-
16dd-
16cc
=332
8b-
4ff
8ff
=333
8ff
4gg-
8gg-
=334
8gg-
4ff
8ff
=335
8ff
8cc
8dd-
8ee-
=336
8dd-
4fff
8fff
=337
8fff
4ggg-
8ggg-
=338
8ggg-
4fff
8fff
=339
8fff
8ccc
8ddd-
8eee-
=340
8ddd-
4cc
8cc
=341
8cc
4b
8b
=342
8b
4cc
8cc
=343
8cc
8g
8a-
8b-
=344
8a-
4ccc
8ccc
=345
8ccc
4bb
8bb
=346
8bb
4ccc
8ccc
=347
8ccc
8gg
8aa-
8bb-
=348
16aa-
16c
16f
16a-
16cc
16dd-
16cc
16b-
=349
16a-
16b-
16a-
16g
16f
16g
16a-
16f
=350
16g-
16d-
16g-
16b-
16dd-
16ee-
16dd-
16cc
=351
16b-
16cc
16b-
16a-
16g-
16a-
16b-
16g-
=352
16a
16e-
16a
16cc
16ee-
16ff
16ee-
16dd-
=353
16cc
16dd-
16cc
16b-
16a
16b-
16cc
16a
=354
16b-
16f
16b-
16dd-
16ff
16gg-
16ff
16ee-
=355
16dd-
16cc
16b-
16a-
16g-
16f
16e-
16d-
=356
16c
16B-
16A-
16G-
16F
16E-
16D-
16C
=357
16BB-
16C
16D-
16C
8BB-
8A-
=358
16G
16c
16r
16c
16r
16c
16r
16c
=359
16r
16c
16r
16c
16r
16c
16r
16c
=360
16r
16cc
16r
16cc
16r
16cc
16r
16cc
=361
16r
16cc
16r
16cc
16r
16cc
16r
16cc
=362
16r
16ccc
16r
16ccc
16r
16ccc
16r
16ccc
=363
16r
16ccc
16r
16ccc
16r
16ccc
16r
16ccc
=364
*8va
16r
16cccc
16r
16cccc
16r
16cccc
16r
16cccc
=365
16r
16cccc
16r
16cccc
16r
16cccc
16r
16cccc
*X8va
=366
16r
16D-
16G-
16B-
8d-
8r
=367
16r
16d-
16g-
16b-
8dd-
8r
=368
16r
16dd-
16gg-
16bb-
8ddd-
8r
=369
2r
=370
16r
16E
16G
16B-
8e
8r
=371
16r
16e
16g
16b-
8ee
8r
=372
16r
16ee
16gg
16bb-
8eee
8r
=373
2r
=374
4r
16G
16B-
16d-
16e
=375
8g
8r
4r
=376
4r
16B-
16d-
16e
16g
=377
8b-
8r
4r
=378
4r
16d-
16e
16g
16b-
=379
8dd-
8r
4r
=380
4r
16e
16g
16b-
16dd-
=381
8ee
8r
4r
=382
2r
=383
8r
8e
8g
8b-
=384
8dd-
8ee
8gg
8bb-
=385
8ddd-
8eee
8ggg
8bbb-
=386
8ggg
8eee
8ddd-
8bb-
=387
8gg
8ee
8dd-
8b-
=388
8g
8e
8d-
8B-
=389
8G
8E
8D-
8BB-
=390
2GG
=391
2r
=392
2r
=393
2r
=394
2r
=395
2r
=396
4.E
8r
=397
2r
=398
4.e
8r
=399
4.ee
8r
=400
4.eee
8r
=401
4.E
8r
=402
16r
16C
16F
16A-
16c
16d-
16c
16B-
=403
16A-
16B-
16A-
16G
16F
16G
16A-
16F
=404
16r
16C
16F
16A-
16c
16d-
16c
16B-
=405
16A-
16B-
16A-
16G
16F
16G
16A-
16F
=406
16r
16D-
16G-
16B-
16d-
16e-
16d-
16c
=407
16B-
16c
16B-
16A-
16G-
16A-
16G-
16F
=408
16E
16F
16G
16E
16F
16G
16A-
16F
=409
16G
16A-
16B-
16G
16E
16F
16G
16E
=410
4F
8r
8e
=411
8f
8g
8a-
8f
=412
4r
8r
8ee
=413
8ff
8gg
8aa-
8ff
=414
4r
8r
8ff
=415
8gg-
8bb-
8ddd-
8ddd-
=416
4ddd-
[4ccc
=417
4ccc]
4ee
=418
16ff
16c
16f
16a-
16cc
16c
16f
16a-
=419
16r
16c
16f
16a-
16cc
16c
16f
16a-
=420
16r
16B
16d
16a-
4b
=421
16b
16B
16e
16g
16cc
16c
16e
16g
=422
16r
16c
16e
16g
16cc
16c
16e
16g
=423
16r
16c
16e
16g
16cc
16c
16e
16g
=424
16r
16c
16e
16g
4cc
=425
16cc
16c
16e
16g
16cc
16c
16f
16a-
=426
16r
16f
16a
16cc
16ff
16f
16a
16cc
=427
16r
16f
16a
16cc
16ff
16f
16a
16cc
=428
16r
16f
16a
16cc
4ff
=429
16a
16ff
16b-
16ff
16cc
16ff
16dd-
16ff
=430
4r
4cc
=431
16cc
16c
16g
16b-
16cc
16c
16e
16g
=432
4cc
8.r
16aa-
=433
4aa-
8.r
16aa-
=434
2aa-
=435
8gg
8r
4r
=436
4r
8.r
16bb-
=437
4bb-
8.r
16bb-
=438
2bb-
=439
8aa-
8r
4r
=440
4r
8.r
16eee-
=441
4eee-
8.r
16eee-
=442
[2eee-
=443
8eee-]
8ddd-
8ccc
8bb-
=444
4aa-
8.r
16fff
=445
4ggg
8.r
16eee
=446
16fff
16cc
16ff
16aa-
16ccc
16ddd-
16ccc
16bb-
=447
16aa-
16bb-
16aa-
16gg
16ff
16gg
16aa-
16ff
=448
16r
16cc
16ff
16aa-
16ccc
16ddd-
16ccc
16bb-
=449
16aa-
16bb-
16aa-
16gg
16ff
16gg
16aa-
16ff
=450
16r
*8va
16gg-
16ccc
16eee-
16ggg-
16aaa-
16ggg-
16fff
=451
16eee-
16fff
16eee-
16ddd-
16ccc
16ddd-
16eee-
16ccc
=452
16r
16gg-
16ccc
16eee-
16ggg-
16aaa-
16ggg-
16fff
=453
16eee-
16fff
16eee-
16ddd-
16ccc
16bb-
16aa-
16gg-
=454
16ff
16aa-
16ddd-
16fff
16aaa-
16bbb-
16aaa-
16ggg-
=455
16fff
16ggg-
16fff
16eee-
16ddd-
16eee-
16fff
16ddd-
=456
16r
16aa-
16ddd-
16fff
16aaa-
16bbb-
16aaa-
16ggg-
=457
16fff
16ggg
16aaa-
16ggg
16fff
16ggg
16aaa-
16fff
=458
16r
16ggg-
16aaa-
16ggg-
16aaa-
16ggg-
16fff
16ggg-
=459
16r
16eee
16fff
16eee
16r
16fff
16ggg
16fff
=460
16r
16ggg-
16aaa-
16ggg-
16aaa-
16ggg-
16fff
16ggg-
=461
16r
16eee
16fff
16eee
16r
16fff
16ggg
16fff
=462
16r
16ggg-
16aaa-
16ggg-
16aaa-
16ggg-
16fff
16ggg-
=463
16r
16eee
16fff
16eee
16r
16ddd-
16eee-
16ddd-
*X8va
=464
16r
16ccc
16ddd-
16ccc
16r
16bb-
16ccc
16bb-
=465
16r
16bb-
16ccc
16bb-
16r
16aa-
16bb-
16aa-
=466
16r
16aa-
16bb-
16aa-
16r
16gg
16aa-
16gg
=467
16r
16ff
16gg
16ff
16r
16ee
16ff
16ee
=468
16r
16d-
16dd-
16d-
16dd-
16d-
16dd-
16d-
=469
16r
16d-
16dd-
16cc
16b-
16a-
16g
16f
=470
16r
16dd-
16ddd-
16dd-
16ddd-
16dd-
16ddd-
16dd-
=471
16r
16dd-
16ddd-
16ccc
16bb-
16aa-
16gg
16ff
=472
16r
16d-
16dd-
16d-
16dd-
16d-
16dd-
16d-
=473
16r
16dd-
16d-
16dd-
16r
16ddd-
16dd-
16ddd-
=474
16r
16ccc
16cc
16ccc
16r
16bb
16b
16bb
=475
16r
16bb-
16b-
16bb-
16r
16aa-
16cc
16aa-
=476
16r
16aa-
16dd
16aa-
16r
16gg
16dd
16gg
=477
16r
16ff
16a-
16ff
16r
16ee
16g
16ee
=478
16ff
16c
16f
16a-
16cc
16dd-
16cc
16b-
=479
16a-
16b-
16a-
16g
16f
16e-
16d-
16c
=480
16B-
16A-
16G
16F
8E
8c
=481
8c
8c
8c
8c
=482
16c
16cc
16ff
16aa-
16ccc
16ddd-
16ccc
16bb-
=483
16aa-
16bb-
16aa-
16gg
16ff
16ee-
16dd-
16cc
=484
16b-
16a-
16g
16f
8e
8cc
=485
8cc
8cc
8cc
8cc
=486
4cc
8r
8ccc
=487
8ccc
8ccc
8ccc
8ccc
=488
4ccc
8r
8cc
=489
8cc
8cc
8cc
8cc
=490
*>B2
16cc
16g
16a-
16b-
16cc
16dd
16ee
16ff
=491
16gg
16ff
16ee
16dd-
16cc
16b-
16a-
16g
=492
16f
16g
16a-
16b-
16cc
16dd
16ee
16ff
=493
16gg
16ff
16ee
16dd-
16cc
16b-
16a-
16g
=494
16f
16g
16a-
16b-
16cc
16dd
16ee
16ff
=495
16gg
16ff#
16gg
16ff#
16gg
16ff#
16gg
16ff#
=496
16gg
16ff#
16gg
16ff#
16gg
16ff#
16gg
16ff#
=497
16gg
16ff
16ee
16dd-
16cc
16b-
16a-
16g
=498
*>D
*MM180
2f
=499
2a-
=500
8g
8e
8c
8e
=501
8f
8c
8f
8a-
=502
8g
8e
8c
8e
=503
8f
8c
8f
8a-
=504
8g
8e-
8d
8g
=505
*>D1
4c
8r
24c
24d
24e
=506
*>D
2f
=507
2a-
=508
8g
8e
8c
8e
=509
8f
8c
8f
8a-
=510
8g
8e
8c
8e
=511
8f
8c
8f
8a-
=512
8g
8e-
8d
8g
=513
*>D2
4c
8r
24e-
24f
24g
=514
*>E
2a-
=515
2cc
=516
8b-
8g
8e-
8g
=517
8a-
8e-
8a-
8cc
=518
8b-
8g
8e-
8g
=519
8a-
8e-
8a-
8cc
=520
8a
8f
8a
8cc
=521
8b-
8f
8b-
8dd-
=522
8cc
8a-
8g
8cc
=523
*>E1
4f
8r
24e-
24f
24g
=524
*>E
2a-
=525
2cc
=526
8b-
8g
8e-
8g
=527
8a-
8e-
8a-
8cc
=528
8b-
8g
8e-
8g
=529
8a-
8e-
8a-
8cc
=530
8a
8f
8a
8cc
=531
8b-
8f
8b-
8dd-
=532
8cc
8a-
8g
8cc
=533
*>E2
16f
16c
16f
16a-
16cc
16dd-
16cc
16b-
=534
*>F
16a-
16b-
16a-
16g
16f
16g
16a-
16f
=535
16a-
16c
16f
16a-
16cc
16dd-
16cc
16b-
=536
16a-
16b-
16a-
16g
16f
16g
16a-
16f
=537
16g-
16d-
16g-
16b-
16dd-
16ee-
16dd-
16cc
=538
16b-
16cc
16b-
16a-
16g-
16a-
16g-
16f
=539
16e
16f
16g
16a-
16b-
16a-
16g
16f
=540
16e
16f
16g
16a-
16b-
16cc
16dd
16ee
=541
16ff
16cc
16ff
16aa-
16ccc
16ddd-
16ccc
16bb-
=542
16aa-
16bb-
16aa-
16gg
16ff
16gg
16aa-
16ff
=543
16aa-
16cc
16ff
16aa-
16ccc
16ddd-
16ccc
16bb-
=544
16aa-
16bb-
16aa-
16gg
16ff
16gg
16aa-
16ff
=545
16gg-
16dd-
16gg-
16bb-
16ddd-
16eee-
16ddd-
16ccc
=546
16bb-
16ccc
16bb-
16aa-
16gg-
16aa-
16gg-
16ff
=547
16ee
16ff
16gg
16aa-
16bb-
16aa-
16gg
16ff
=548
16ee
16ff
16gg
16aa-
16bb-
16ccc
16ddd
16eee
=549
*8va
16fff
16aa-
16ccc
16fff
[4aaa-
=550
16aaa-]
16ccc
16fff
16aaa-
16cccc
16aaa-
16ggg
16eee
=551
16fff
16aa-
16ccc
16fff
[4aaa-
=552
16aaa-]
16ccc
16fff
16aaa-
16cccc
16aaa-
16ggg
16eee
=553
16fff
16aa-
16ccc
16fff
[4aaa-
=554
16aaa-]
16ccc
16fff
16aaa-
16cccc
16aaa-
16ggg
16eee
=555
16fff
16aa-
16ccc
16fff
[4aaa-
=556
16aaa-]
16ccc
16fff
16aaa-
16cccc
16aaa-
16ggg
16eee
=557
16fff
16ccc
16fff
16aaa-
16cccc
16aaa-
16ggg
16eee
=558
16fff
16ccc
16fff
16aaa-
16cccc
16aaa-
16ggg
16eee
=559
16fff
16ccc
16fff
16aaa-
16cccc
16aaa-
16ggg
16eee
=560
16cccc
16aaa-
16ggg
16eee
16cccc
16aaa-
16ggg
16eee
=561
16cccc
16aaa-
16fff
16ccc
16aaa-
16fff
16ccc
16aa-
=562
16fff
16ccc
16aa-
16ff
*X8va
16ccc
16aa-
16ff
16cc
=563
16aa-
16ff
16cc
16a-
16ff
16cc
16a-
16f
=564
16cc
16a-
16f
16c
16a-
16f
16c
16A-
=565
16f
16c
16A-
16F
16c
16A-
16F
16C
=566
16A-
16F
16C
16AA-
16F
16C
16AA-
16C
=567
8F
8r
4r
=568
8ff
8r
4r
=569
8f
8r
4r
==
*-
